svgs/lego_builder.svg

<svg width="192" height="192" viewBox="0 0 192 192" fill="none" xmlns="http://www.w3.org/2000/svg"><path d="M28.5 122.766V163.986C28.5 167.3 31.1863 169.986 34.5 169.986H157.5C160.814 169.986 163.5 167.3 163.5 163.986V122.766H154V111.714H135.2V122.766H104.5V111.714H86V122.766H55.5V111.714H37.2V122.766H28.5ZM34.797 31.433L29.9167 72.2347C29.5243 75.5155 31.8583 78.4961 35.1374 78.9018L59.8556 81.9604C63.1438 82.3673 66.1393 80.0319 66.5469 76.7438L71.579 36.143L62.203 35.056L64.186 24.006L45.074 22.014L43.992 32.701L34.797 31.433Z" stroke="black" stroke-width="12" stroke-linecap="round" stroke-linejoin="round"/></svg>

<svg xmlns="http://www.w3.org/2000/svg" width="192" height="192" fill="none" viewBox="0 0 192 192"><path stroke="#000" stroke-linecap="round" stroke-linejoin="round" stroke-width="12" d="M28.5 122.766v41.22a6 6 0 0 0 6 6h123a6 6 0 0 0 6-6v-41.22H154v-11.052h-18.8v11.052h-30.7v-11.052H86v11.052H55.5v-11.052H37.2v11.052zm6.297-91.333-4.88 40.802a6 6 0 0 0 5.22 6.667l24.719 3.058a6 6 0 0 0 6.69-5.216l5.033-40.601-9.376-1.087 1.983-11.05-19.112-1.992-1.082 10.687z"/></svg>
